assets/panel__icon_out.svg

<svg height="16" width="16" xmlns="http://www.w3.org/2000/svg" xmlns:xlink="http://www.w3.org/1999/xlink"><defs><path id="a" d="m8 1c.412 0 .679.168 1.018.508l5.726 5.725a.875.875 0 1 1 -1.238 1.238l-5.506-5.507-5.506 5.507a.875.875 0 1 1 -1.238-1.238l5.746-5.746c.333-.332.586-.487.998-.487zm0 6c.412 0 .679.168 1.018.508l5.726 5.725a.875.875 0 1 1 -1.238 1.238l-5.506-5.507-5.506 5.507a.875.875 0 1 1 -1.238-1.238l5.746-5.746c.333-.332.586-.487.998-.487z"/><mask id="b" fill="#fff"><use fill="none" xlink:href="#a"/></mask></defs><g fill="none" fill-rule="evenodd"><path d="m-540-538h1366v768h-1366z" fill="none"/><g opacity=".3"><path d="m0 0h16v16h-16z"/><use fill="#000" fill-rule="nonzero" xlink:href="#a"/><g fill="#333" mask="url(#b)"><path d="m-82-57h180v130h-180z"/></g></g></g></svg>

<svg width="16" height="16" xmlns="http://www.w3.org/2000/svg" xmlns:xlink="http://www.w3.org/1999/xlink">
  <defs>
    <path d="M8 1c.412 0 .679.168 1.018.508l5.726 5.725a.875.875 0 1 1-1.238 1.238L8 2.964 2.494 8.471a.875.875 0 1 1-1.238-1.238l5.746-5.746C7.335 1.155 7.588 1 8 1zm0 6c.412 0 .679.168 1.018.508l5.726 5.725a.875.875 0 1 1-1.238 1.238L8 8.964l-5.506 5.507a.875.875 0 1 1-1.238-1.238l5.746-5.746C7.335 7.155 7.588 7 8 7z" id="a"/>
  </defs>
  <g fill="none" fill-rule="evenodd">
    <path fill="none" d="M-540-538H826v768H-540z"/>
    <g opacity=".3">
      <path d="M0 0h16v16H0z"/>
      <mask id="b" fill="#fff">
        <use xlink:href="#a"/>
      </mask>
      <use fill="#000" fill-rule="nonzero" xlink:href="#a"/>
      <g mask="url(#b)" fill="#333">
        <path d="M-82-57H98V73H-82z"/>
      </g>
    </g>
  </g>
</svg>
